images/three.svg

<svg width="45" height="57" viewBox="0 0 45 57" fill="none" xmlns="http://www.w3.org/2000/svg">
<path d="M21.6081 56.96C17.7148 56.96 13.8481 56.4533 10.0081 55.44C6.16813 54.3733 2.91479 52.88 0.248125 50.96L5.28813 41.04C7.42146 42.5867 9.90146 43.8133 12.7281 44.72C15.5548 45.6267 18.4081 46.08 21.2881 46.08C24.5415 46.08 27.1015 45.44 28.9681 44.16C30.8348 42.88 31.7681 41.12 31.7681 38.88C31.7681 36.7467 30.9415 35.0667 29.2881 33.84C27.6348 32.6133 24.9681 32 21.2881 32H15.3681V23.44L30.9681 5.76L32.4081 10.4H3.04813V-3.8147e-06H42.2481V8.4L26.7281 26.08L20.1681 22.32H23.9281C30.8081 22.32 36.0081 23.8667 39.5281 26.96C43.0481 30.0533 44.8081 34.0267 44.8081 38.88C44.8081 42.0267 43.9815 44.9867 42.3281 47.76C40.6748 50.48 38.1415 52.6933 34.7281 54.4C31.3148 56.1067 26.9415 56.96 21.6081 56.96Z" fill="url(#paint0_linear_86_870)"/>
<defs>
<linearGradient id="paint0_linear_86_870" x1="5.40541" y1="4.5" x2="60.5825" y2="19.3976" gradientUnits="userSpaceOnUse">
<stop stop-color="#00D864"/>
<stop offset="1" stop-color="#007C39"/>
</linearGradient>
</defs>
</svg>

<svg width="45" height="57" fill="none" xmlns="http://www.w3.org/2000/svg"><path d="M21.608 56.96c-3.893 0-7.76-.507-11.6-1.52-3.84-1.067-7.093-2.56-9.76-4.48l5.04-9.92c2.133 1.547 4.613 2.773 7.44 3.68s5.68 1.36 8.56 1.36c3.253 0 5.814-.64 7.68-1.92 1.867-1.28 2.8-3.04 2.8-5.28 0-2.133-.826-3.813-2.48-5.04-1.653-1.227-4.32-1.84-8-1.84h-5.92v-8.56l15.6-17.68 1.44 4.64H3.048V0h39.2v8.4l-15.52 17.68-6.56-3.76h3.76c6.88 0 12.08 1.547 15.6 4.64 3.52 3.093 5.28 7.067 5.28 11.92 0 3.147-.827 6.107-2.48 8.88-1.653 2.72-4.187 4.933-7.6 6.64-3.413 1.707-7.787 2.56-13.12 2.56Z" fill="url(#a)"/><defs><linearGradient id="a" x1="5.405" y1="4.5" x2="60.583" y2="19.398" gradientUnits="userSpaceOnUse"><stop stop-color="#00D864"/><stop offset="1" stop-color="#007C39"/></linearGradient></defs></svg>
